!! 00000] TT[WS
!!!OTL: Xiaoguafu shangfen
!!!ARE: Asia, China, Shanxi Xingxian
!! Ethnic Group: Han
!! WII, 151 (3)
!!!SCT: J0631
!!!YEM: Copyright 1995, estate of Helmut Schaffrath.
**kern
*ICvox
*Ivox
*M2/4
*k[b-]
*F:
{8cc
16cc
16b-
8g
16g
16b-
=1
8cc
16cc
16b-
4g
=2
8cc
8cc
8ff
16dd
16cc
=3
2b-}
=4
{8g
16g
16b-
4cc
=5
8dd
16ff
16dd
4cc
=6
8g
8cc
8b-
8g
=7
2f}
==
!!!AGN: Xiaodiao. Qingge, Aisu
!!!ONB: ESAC (Essen Associative Code) Database: CHINA
!!!AMT: simple duple
!!!AIN: vox
!!!EED: Helmut Schaffrath
!!!EEV: 1.0
*-
